src/assets/img/icons/duotone-icons/Clothes/Sneakers.svg

<?xml version="1.0" encoding="UTF-8"?>
<svg width="24px" height="24px" viewBox="0 0 24 24" version="1.1" xmlns="http://www.w3.org/2000/svg" xmlns:xlink="http://www.w3.org/1999/xlink">
    <!-- Generator: Sketch 52.2 (67145) - http://www.bohemiancoding.com/sketch -->
    <title>Stockholm-icons / Clothes / Sneakers</title>
    <desc>Created with Sketch.</desc>
    <g id="Stockholm-icons-/-Clothes-/-Sneakers" stroke="none" stroke-width="1" fill="none" fill-rule="evenodd">
        <polygon id="bound" points="0 0 24 0 24 24 0 24"></polygon>
        <rect id="Rectangle-148" fill="#335EEA" opacity="0.3" x="2" y="3" width="7" height="14" rx="1"></rect>
        <path d="M16.6236387,13.0538007 C18.8273383,13.8579339 20.1826034,13.7956508 21,14 C21.5844894,14.1461224 22.1049236,14.4525789 22.5613025,14.9193695 C22.8220479,15.1860635 23.0030223,15.5203564 23.0837834,15.8844876 C23.3229559,16.9628548 22.6426541,18.0309317 21.5642858,18.2700997 C20.2740329,18.5562665 18.7433451,18.7531138 16.9722222,18.8606416 C13.9910551,19.0416332 8.86226533,19.0463278 1.5858528,18.8747253 C1.26005876,18.867042 0.999953435,18.6007302 0.999953435,18.2748455 L1,18.2748455 C1,15.4124758 1,13.3451074 1,12.0727406 C5.24980707,11.6622656 8.09783699,10.5071287 9.54408978,8.60732991 C9.56481367,8.58010699 9.58782802,8.55470651 9.6128812,8.53140618 C9.85553488,8.30572983 10.2351914,8.31949268 10.4608598,8.56215378 C10.8762386,9.00878105 11.2674202,9.41538104 11.6344046,9.78195376 C11.6101853,9.81416566 11.5876475,9.84819014 11.5669873,9.8839746 L10.0669873,12.4820508 C9.79084492,12.9603434 9.95472008,13.5719338 10.4330127,13.8480762 C10.9113053,14.1242186 11.5228957,13.9603434 11.7990381,13.4820508 L13.1335582,11.1705941 C13.630492,11.5858319 14.0581948,11.8865474 14.4166667,12.0727406 C14.5381042,12.1358162 14.6576898,12.1965218 14.7754507,12.2549561 L14.0669873,13.4820508 C13.7908449,13.9603434 13.9547201,14.5719338 14.4330127,14.8480762 C14.9113053,15.1242186 15.5228957,14.9603434 15.7990381,14.4820508 L16.6236387,13.0538007 Z" id="Combined-Shape" fill="#335EEA"></path>
    </g>
</svg>

<svg width="24" height="24" viewBox="0 0 24 24" xmlns="http://www.w3.org/2000/svg"><g fill="none" fill-rule="evenodd"><path d="M0 0h24v24H0z"/><rect fill="#335EEA" opacity=".3" x="2" y="3" width="7" height="14" rx="1"/><path d="M16.624 13.054c2.203.804 3.559.742 4.376.946.584.146 1.105.453 1.561.92a2 2 0 01-.997 3.35c-1.29.286-2.82.483-4.592.59-2.98.182-8.11.186-15.386.015a.6.6 0 01-.586-.6v-6.202c4.25-.41 7.098-1.566 8.544-3.466a.6.6 0 01.917-.045c.415.447.806.853 1.173 1.22a1.01 1.01 0 00-.067.102l-1.5 2.598a1 1 0 001.732 1l1.335-2.311c.496.415.924.716 1.283.902.121.063.24.124.358.182l-.708 1.227a1 1 0 001.732 1l.825-1.428z" fill="#335EEA"/></g></svg>
